!!!COM: Peter Cornelius
!!!CNT: Deutsch
!!!TXO: Deutsch
!!!OTL: Auftrag
!!!LYR: Ho2lty
!!!OPR: 6 Lieder
!!!OPS: Op. 5
!!!ONM: No. 6
!!!ENC: Ben Fuhrman
!!!YOR: CD Sheet Music, Mid-Romantic German Lieder: The Ultimate Collection.
!!!YOR: CD Sheet Music, LLC 2001
!!!ODT: 1862
!!NB: Only vocal melody encoded.
!!NB: First instance of melodic material only encoded.
!!created: 2/3/10 3:17PM
!!proofed and posted: 2/3/10 3:17PM
**kern	**silbe
*clef G2	*
*k[f#c#]	*
*M3/8	*
*MM[Ma2ssig langsam]	*
=4	=4
4r	.
{8a	{Ihr
=5	=5
8dd	Freun-
8a}	-de,}
8r	.
=6	=6
16r	.
{8f#	{ha2n-
16f#	-get,
24f#	wenn
24e	ich
24f#	ge-
=7	=7
16.a	-stor-
32g	-ben
8e}	bin,}
8r	.
=8	=8
16.r	.
{32e	{die
8f#	klei-
8g	-ne
=9	-9
8b	Har-
8a	-fe
24e	hin-
24d#	-ter
24e	dem
=10	=10
4a	Al-
8g	-tar
=11	=11
4.f#}	auf,}
=12	=12
8r	.
{8f#	{wo
16g	an
16f#	der
=13	=13
4fn	Wand
8fn	die
=14	=14
[4b	To
16b]	|
16b-	-ten-
=15	=15
8b-	-kra2n-
8e	-ze
24e	man-
24d#	-cher
24e	ver-
=16	=16
24f#	-stor-
24e#	-be-
24f#	-ner
8.a	Ma2d-
16g	-chen
=17	=17
8f#	schim-
8en}	-mern.}
8r	.
!! Rest to measure 21
=21	=21
16r	.
{16f#	{Der
8b	Ku2s-
8f#	-ter
=22	=22
8d#	zeigt
8d#	dann
24d#	freund-
24e#	-lich
24f#	dem
=23	=23
*k[b-e-a-]	*
16g#	Rei
16f#	-sen-
16e#	-den
16bn	die
16b-	klei-
16a-	-ne
=24	=24
8g-}	Harf'}
8r	.
{[8ee-	{rauscht
=25	=25
8ee-]	|
16cc-	mit
16a-	dem
16.f	ro-
32cc-	-ten
=26	=26
4.b-	Band,
=27	=27
24g	das,
24a-	um
24b-	die
(16cc	Har-
16b-)	|
8f	-fe
=28	=28
(24g	fest
24a-)	|
24cc	gesch-
8b-	-lun-
16f}	-gen,}
16r	.
=29	=29
*k[f#c#]	*
8r	.
{24bn	{un
24a#	-ter
24g#	den
16g#	gold'-
16f#	-nen
=30	=30
16cc#	Sai-
16b	-ten
(24b	flat-
24a#)	|
24g#}	-tert.}
8r	.
!! Rest to measure 34
=34	=34
{8.cc	{Oft,
16r	.
16a	sagt
16e	er
=35	=35
8d#	stau-
8f#}	-nend:}
8r	.
=36	=36
{4b	{to2-
16g#	-nen
16dn	im
=37	=37
16.f#	A-
32e	-bend-
8c#	-gold
16r	.
16e	von
=38	=38
(8.fn	selbst
16g)	|
8fn	die
=39	=39
8fn	Sai-
8d}	-ten,}
8r	.
=40	=40
{4fn	{lei-
16g	-se-
16f#	wie
=41	=41
16.b-	Bie-
32fn	-nen-
4fn}	-ton.}
=42	=42
16r	.
{16cn	{Die
8fn	Kin-
8fn	-der,
=43	=43
8r	.
16fn	her-
16fn	-ge-
16g	-lockt
16a	vom
=44	=44
16g	Kirch-
16fn}	-hof,}
8r	.
8r	.
=45	=45
{8b-	{ho2r-
8b-	-ten's
8r	.
=46	=46
16r	.
16bn	und
[4bn	sah'n
=47	=47
4bn]	|
16a	wie
16f#	die
=48	=48
(8ee	Kra2n-
8dd)	|
8f#	-ze
=49	=49
4cc#	beb-
8b}	-ten.}
==	==
*-	*-
